X:53207
F:http://www.vwml.org/record/HAM/5/32/7 %%VWML:HAM-5-32-7-0
T:High Germany
S:Mrs Marina Russell, Upwey coll. c1906 HED Hammond O:England
A:Dorset
N:Transcribed from HAM-05-32-05 F:HAM-05-32-07.abc Z:EFDSS;PJHeadford
M:3/4
L:1/8
Q:3/4=45
K:D
d2|B2A2 F E|ED B,2 B, C|DE F2 ED|B,4 d2| B2A2 F E|ED B,2 B, C|DE F2 ED|B,4 B, C| M:C
D> C D E F2D2|E F G E F2E2\
M:3/4
"^*"|F2 d2 c2|B4 B2|
B2A2 F E|F>E B,A, B,C|D E FE ((3ED B,)|B,4
W:[Both tune and words are clearly titled "High Germany" - PJH] W:[In the tune MS, to the left of the title:] Dorian 504
W:[to the right:] Russell [and, feintly:] of Upwey W:[Hammond puts no bar line at the end of the tune.]
W:[at *, Hammond inserts a time signature of 9/4.]
W:[below the tune, feintly:] Another tune is 723
W:
W:
W:My friends I do not value, for my foes I do not care
W:But along eith my jolly seaman bold I will travel far & near W:She said My dear forsake but pity on me take
W:To transport bonny Ireland along with you I'll go.
W:
